packages/kaspersky-hexa-ui-icons/src/iconsSVGs/28x20/FlagMe.svg

<svg width="28" height="20" viewBox="0 0 28 20" fill="none" xmlns="http://www.w3.org/2000/svg">
<g clip-path="url(#clip0_5138_1456)">
<rect width="28" height="20" rx="2" fill="white"/>
<mask id="mask0_5138_1456" style="mask-type:luminance" maskUnits="userSpaceOnUse" x="0" y="0" width="28" height="20">
<rect width="28" height="20" rx="2" fill="white"/>
</mask>
<g mask="url(#mask0_5138_1456)">
<rect width="28" height="20" fill="#E6BE53"/>
<path fill-rule="evenodd" clip-rule="evenodd" d="M1.33334 17.6667C1.33334 18.219 1.78105 18.6667 2.33334 18.6667H25.6667C26.219 18.6667 26.6667 18.219 26.6667 17.6667V2.33333C26.6667 1.78105 26.219 1.33333 25.6667 1.33333H2.33334C1.78105 1.33333 1.33334 1.78105 1.33334 2.33333V17.6667Z" fill="#E01826"/>
<path fill-rule="evenodd" clip-rule="evenodd" d="M13.0233 3.65889C12.5532 3.81561 12.4123 4.41232 12.7628 4.76275L13.1381 5.13807C13.2631 5.2631 13.4327 5.33333 13.6095 5.33333H14.3905C14.5673 5.33333 14.7369 5.2631 14.8619 5.13807L15.2373 4.76275C15.5877 4.41232 15.4468 3.81561 14.9767 3.65889L14.2108 3.40361C14.074 3.35799 13.926 3.35799 13.7892 3.40361L13.0233 3.65889ZM14.4714 6.86193C14.2111 7.12228 13.7889 7.12228 13.5286 6.86193L13.3333 6.66667L12.3398 5.6731C12.1369 5.4702 11.8269 5.41989 11.5702 5.54822L11.494 5.58635C11.087 5.78985 10.9989 6.33228 11.3207 6.65404L11.3333 6.66667L12.3269 7.66023C12.5298 7.86314 12.5801 8.17312 12.4518 8.42978L12.038 9.25741C12.013 9.30734 12 9.36239 12 9.41822C12 9.68551 11.7187 9.85935 11.4796 9.73982L11.1567 9.57836C10.9156 9.45782 10.8635 9.13651 11.0541 8.94591C11.2083 8.79169 11.2083 8.54165 11.0541 8.38743L10.7432 8.0765C10.6925 8.02583 10.6503 7.96733 10.6183 7.90324L10.0327 6.73212C10.011 6.68862 9.99405 6.64286 9.98225 6.59567L9.67304 5.35883C9.53689 4.81423 8.82976 4.67143 8.49295 5.12052L7.46667 6.48889C7.38012 6.60429 7.33334 6.74464 7.33334 6.88889V9.17595C7.33334 9.27945 7.35743 9.38153 7.40372 9.4741L7.95162 10.5699C7.98367 10.634 8.02583 10.6925 8.0765 10.7432L9.25684 11.9235C9.30751 11.9742 9.36601 12.0163 9.4301 12.0484L10.6037 12.6352C10.6451 12.6559 10.6908 12.6667 10.7371 12.6667C11.0517 12.6667 11.1518 13.0908 10.8704 13.2315L10.7159 13.3087C10.6833 13.325 10.6535 13.3465 10.6278 13.3722L10.3333 13.6667C10.1492 13.8508 9.85076 13.8508 9.66667 13.6667C9.48257 13.4826 9.1841 13.4826 9 13.6667L8.94591 13.7208C8.77915 13.8875 8.73781 14.1423 8.84328 14.3532L9.14907 14.9648C9.262 15.1907 9.49284 15.3333 9.74536 15.3333H10.5093C10.6128 15.3333 10.7149 15.3092 10.8074 15.263L11.8012 14.766C11.9303 14.7015 12.0349 14.5969 12.0994 14.4679L12.4016 13.8634C12.532 13.6026 12.8796 13.5462 13.0857 13.7524C13.2297 13.8964 13.252 14.1219 13.1391 14.2914L12.3698 15.4453C12.1656 15.7517 12.2484 16.1656 12.5547 16.3698L13.6302 17.0868C13.8541 17.2361 14.1459 17.2361 14.3698 17.0868L15.4453 16.3698C15.7517 16.1656 15.8344 15.7517 15.6302 15.4453L14.8609 14.2914C14.748 14.1219 14.7703 13.8964 14.9143 13.7524C15.1204 13.5462 15.468 13.6026 15.5984 13.8634L15.9006 14.4679C15.9651 14.5969 16.0697 14.7015 16.1988 14.766L17.1926 15.263C17.2851 15.3092 17.3872 15.3333 17.4907 15.3333H18.2546C18.5072 15.3333 18.738 15.1907 18.8509 14.9648L19.1567 14.3532C19.2622 14.1423 19.2209 13.8875 19.0541 13.7208L19 13.6667C18.8159 13.4826 18.5174 13.4826 18.3333 13.6667C18.1492 13.8508 17.8508 13.8508 17.6667 13.6667L17.3722 13.3722C17.3465 13.3465 17.3167 13.325 17.2841 13.3087L17.1296 13.2315C16.8482 13.0908 16.9483 12.6667 17.263 12.6667C17.3092 12.6667 17.3549 12.6559 17.3963 12.6352L18.5699 12.0484C18.634 12.0163 18.6925 11.9742 18.7432 11.9235L19.9235 10.7432C19.9742 10.6925 20.0163 10.634 20.0484 10.5699L20.5963 9.4741C20.6426 9.38153 20.6667 9.27945 20.6667 9.17596V6.88889C20.6667 6.74464 20.6199 6.60429 20.5333 6.48889L19.5071 5.12052C19.1702 4.67143 18.4631 4.81423 18.327 5.35883L18.0178 6.59567C18.006 6.64286 17.989 6.68862 17.9673 6.73212L17.3817 7.90324C17.3497 7.96733 17.3075 8.02583 17.2568 8.0765L16.9459 8.38743C16.7917 8.54165 16.7917 8.79169 16.9459 8.94591C17.1365 9.13651 17.0844 9.45782 16.8433 9.57836L16.5204 9.73982C16.2813 9.85935 16 9.68551 16 9.41822C16 9.36239 15.987 9.30734 15.962 9.25741L15.5482 8.42978C15.4199 8.17312 15.4702 7.86314 15.6731 7.66023L16.6667 6.66667L16.6793 6.65404C17.0011 6.33228 16.913 5.78985 16.506 5.58635L16.4298 5.54822C16.1731 5.41989 15.8631 5.4702 15.6602 5.6731L14.6667 6.66667L14.4714 6.86193Z" fill="#E6BE53"/>
<ellipse cx="14" cy="10.8134" rx="1.33333" ry="1.4801" fill="#215F90"/>
</g>
</g>
<defs>
<clipPath id="clip0_5138_1456">
<rect width="28" height="20" fill="white"/>
</clipPath>
</defs>
</svg>

<svg xmlns="http://www.w3.org/2000/svg" width="28" height="20" fill="none" viewBox="0 0 28 20"><g clip-path="url(#a)"><rect width="28" height="20" fill="#fff" rx="2"/><mask id="b" width="28" height="20" x="0" y="0" maskUnits="userSpaceOnUse" style="mask-type:luminance"><rect width="28" height="20" fill="#fff" rx="2"/></mask><g mask="url(#b)"><path fill="#e6be53" d="M0 0h28v20H0z"/><path fill="#e01826" fill-rule="evenodd" d="M1.3333 17.6667c0 .5523.4478 1 1 1h23.3334c.5523 0 1-.4477 1-1V2.3333c0-.5522-.4477-1-1-1H2.3333c-.5522 0-1 .4478-1 1z" clip-rule="evenodd"/><path fill="#e6be53" fill-rule="evenodd" d="M13.0233 3.6589c-.4701.1567-.611.7534-.2605 1.1038l.3753.3754a.667.667 0 0 0 .4714.1952h.781a.667.667 0 0 0 .4714-.1952l.3754-.3754c.3504-.3504.2095-.947-.2606-1.1038l-.7659-.2553a.667.667 0 0 0-.4216 0zm1.4481 3.203a.6667.6667 0 0 1-.9428 0l-.1953-.1952-.9935-.9936a.667.667 0 0 0-.7696-.1249l-.0762.0382c-.407.2035-.4951.7459-.1733 1.0676l.0126.0127.9936.9935a.667.667 0 0 1 .1249.7696l-.4138.8276a.36.36 0 0 0-.038.1608c0 .2673-.2813.4411-.5204.3216l-.3229-.1614c-.2411-.1206-.2932-.4419-.1026-.6325a.395.395 0 0 0 0-.5585l-.3109-.3109a.67.67 0 0 1-.1249-.1733l-.5856-1.171a.67.67 0 0 1-.0504-.1365L9.673 5.3588c-.1361-.5446-.8432-.6874-1.18-.2383L7.4667 6.489a.667.667 0 0 0-.1334.4v2.287c0 .1036.0241.2056.0704.2982l.548 1.0958a.67.67 0 0 0 .1248.1733l1.1803 1.1803a.67.67 0 0 0 .1733.1249l1.1736.5868a.3.3 0 0 0 .1334.0315c.3146 0 .4147.4241.1333.5648l-.1545.0772a.34.34 0 0 0-.0881.0635l-.2945.2945a.4714.4714 0 0 1-.6666 0 .4714.4714 0 0 0-.6667 0l-.054.0541a.548.548 0 0 0-.1027.6324l.3058.6116a.667.667 0 0 0 .5963.3685h.7639a.67.67 0 0 0 .2981-.0703l.9938-.497a.666.666 0 0 0 .2982-.2981l.3022-.6045c.1304-.2608.478-.3172.6841-.111a.427.427 0 0 1 .0534.539l-.7693 1.1539a.6667.6667 0 0 0 .1849.9245l1.0755.717a.667.667 0 0 0 .7396 0l1.0755-.717a.6666.6666 0 0 0 .1849-.9245l-.7693-1.1539a.427.427 0 0 1 .0534-.539c.2061-.2062.5537-.1498.6841.111l.3022.6045a.666.666 0 0 0 .2982.2981l.9938.497a.67.67 0 0 0 .2981.0703h.7639a.667.667 0 0 0 .5963-.3685l.3058-.6116a.548.548 0 0 0-.1026-.6324L19 13.6667a.4714.4714 0 0 0-.6667 0 .4713.4713 0 0 1-.6666 0l-.2945-.2945a.34.34 0 0 0-.0881-.0635l-.1545-.0772c-.2814-.1407-.1813-.5648.1334-.5648a.3.3 0 0 0 .1333-.0315l1.1736-.5868a.67.67 0 0 0 .1733-.1249l1.1803-1.1803a.67.67 0 0 0 .1249-.1733l.5479-1.0958a.67.67 0 0 0 .0704-.2981V6.8889a.666.666 0 0 0-.1334-.4l-1.0262-1.3684c-.3369-.449-1.044-.3063-1.1801.2383l-.3092 1.2369a.67.67 0 0 1-.0505.1364l-.5856 1.1711a.67.67 0 0 1-.1249.1733l-.3109.311a.395.395 0 0 0 0 .5584c.1906.1906.1385.512-.1026.6325l-.3229.1614C16.2813 9.8593 16 9.6855 16 9.4182a.36.36 0 0 0-.038-.1608l-.4138-.8276a.667.667 0 0 1 .1249-.7696l.9936-.9935.0126-.0127c.3218-.3217.2337-.8641-.1733-1.0676l-.0762-.0382a.667.667 0 0 0-.7696.1249l-.9935.9936z" clip-rule="evenodd"/><circle cx="14" cy="11" r="1" fill="#215f90"/></g></g><defs><clipPath id="a"><path fill="#fff" d="M0 0h28v20H0z"/></clipPath></defs></svg>
